X: 32440
T: Pipers Of Roguery, The
R: jig
M: 6/8
K: Dmixolydian
AFD D2 B|AFD EGB|AFD c2 A|BG ~E3 B|
AFD D2 B|AFD EGB|cc/c/d cBG|1 ~E3 B2 G:|2 ~E3 BAG||
|:Ade f3|Adf gfA-|Ade f2g|afd cBG|
Ade f3|Adf gfa-|afg gef|fde cBG:|

